svgs/sharp-light/monitor-waveform.svg

<svg xmlns="http://www.w3.org/2000/svg" viewBox="0 0 576 512"><!--! Font Awesome Pro 6.6.0 by @fontawesome - https://fontawesome.com License - https://fontawesome.com/license (Commercial License) Copyright 2024 Fonticons, Inc. --><path d="M32 64l0 192 144 0 8.6 0 4.8 7.1 30.8 46.2 53-139 13-34 16.3 32.6L345.9 256l86.1 0 16 0 0 32-16 0-96 0-9.9 0-4.4-8.8L290 215.7l-51 134-11 29-17.2-25.8L167.4 288 32 288l0 160 512 0 0-384L32 64zM0 32l32 0 512 0 32 0 0 32 0 384 0 32-32 0L32 480 0 480l0-32L0 64 0 32z"/></svg>

<svg xmlns="http://www.w3.org/2000/svg" viewBox="0 0 576 512"><!--! Font Awesome Pro 6.4.2 by @fontawesome - https://fontawesome.com License - https://fontawesome.com/license (Commercial License) Copyright 2023 Fonticons, Inc. --><path d="M32 64V256H176h8.6l4.8 7.1 30.8 46.2 53-139 13-34 16.3 32.6L345.9 256H432h16v32H432 336h-9.9l-4.4-8.8L290 215.7l-51 134-11 29-17.2-25.8L167.4 288H32V448H544V64H32zM0 32H32 544h32V64 448v32H544 32 0V448 64 32z"/></svg>
